images/c.svg

<svg width="20" height="20" viewBox="0 0 20 20" fill="none" xmlns="http://www.w3.org/2000/svg">
<path d="M10 0C15.52 0 20 4.48 20 10C20 15.52 15.52 20 10 20C4.48 20 0 15.52 0 10C0 4.48 4.48 0 10 0ZM10 2C5.58 2 2 5.58 2 10C2 14.42 5.58 18 10 18C14.42 18 18 14.42 18 10C18 5.58 14.42 2 10 2ZM10 5C11.82 5 13.413 5.973 14.288 7.428L12.574 8.457C12.3043 8.00724 11.9213 7.63605 11.4634 7.38045C11.0055 7.12484 10.4885 6.99374 9.96412 7.00023C9.43971 7.00672 8.92617 7.15056 8.4747 7.41742C8.02323 7.68428 7.6496 8.06483 7.39107 8.52112C7.13254 8.97742 6.99815 9.49351 7.00128 10.0179C7.00442 10.5424 7.14498 11.0568 7.40895 11.51C7.67292 11.9632 8.05107 12.3392 8.5057 12.6007C8.96033 12.8621 9.47556 12.9998 10 13C10.5181 13.0003 11.0275 12.8664 11.4785 12.6112C11.9294 12.356 12.3065 11.9883 12.573 11.544L14.288 12.572C13.726 13.5106 12.8716 14.239 11.8559 14.6453C10.8402 15.0517 9.71922 15.1137 8.6649 14.8217C7.61058 14.5298 6.68114 13.9 6.01914 13.029C5.35713 12.1581 4.99912 11.094 5 10C5 7.24 7.24 5 10 5Z" fill="black"/>
</svg>

<svg xmlns="http://www.w3.org/2000/svg" width="20" height="20" fill="none"><path fill="#000" d="M10 0c5.52 0 10 4.48 10 10s-4.48 10-10 10S0 15.52 0 10 4.48 0 10 0Zm0 2c-4.42 0-8 3.58-8 8s3.58 8 8 8 8-3.58 8-8-3.58-8-8-8Zm0 3c1.82 0 3.413.973 4.288 2.428l-1.714 1.029a3 3 0 1 0-.001 3.087l1.715 1.028A4.999 4.999 0 0 1 5 10c0-2.76 2.24-5 5-5Z"/></svg>
